; generated by Slic3r 1.2.9 on 2018-10-16 at 14:14:28

; external perimeters extrusion width = 0.50mm
; perimeters extrusion width = 0.72mm
; infill extrusion width = 0.72mm
; solid infill extrusion width = 0.72mm
; top infill extrusion width = 0.72mm

M107
M104 S200 ; set temperature
G28 ; home all axes
G1 Z5 F5000 ; lift nozzle

M109 S200 ; wait for temperature to be reached
G21 ; set units to millimeters
G90 ; use absolute coordinates
M82 ; use absolute distances for extrusion
G92 E0
G1 Z0.350 F7800.000
G1 E-2.00000 F2400.00000
G92 E0
G1 X88.854 Y73.638 F7800.000
G1 E2.00000 F2400.00000
G1 X91.586 Y71.877 E2.10059 F1800.000
G1 X93.584 Y71.204 E2.16582
G1 X94.013 Y71.076 E2.17967
G1 X94.521 Y70.952 E2.19585
G1 X96.776 Y70.491 E2.26707
G1 X98.104 Y70.357 E2.30835
G1 X101.896 Y70.357 E2.42569
G1 X103.224 Y70.491 E2.46698
G1 X105.479 Y70.952 E2.53819 F1800.000
G1 X105.987 Y71.076 E2.55437
G1 X108.414 Y71.877 E2.63345
G1 X110.428 Y72.974 E2.70441
G1 X112.396 Y75.561 E2.80500
G1 X116.747 Y85.785 E3.14879
G1 X117.266 Y88.019 E3.21975
G1 X117.116 Y89.827 E3.27590
G1 X110.498 Y119.371 E4.21268
G1 X109.617 Y121.489 E4.28364
G1 X107.391 Y123.634 E4.37931
G1 X105.079 Y124.993 E4.46227
G1 X102.931 Y125.796 E4.53323
G1 X101.722 Y125.907 E4.57079
G1 X98.278 Y125.907 E4.67736
G1 X96.019 Y125.510 E4.74833
G1 X94.921 Y124.993 E4.78589
G1 X92.609 Y123.634 E4.86884
G1 X90.863 Y122.147 E4.93981
G1 X89.502 Y119.371 E5.03548
G1 X82.884 Y89.827 E5.97226
G1 X82.778 Y87.536 E6.04322
G1 X83.253 Y85.785 E6.09936
G1 X87.604 Y75.561 E6.44316
G1 X88.813 Y73.701 E6.51180
G1 E4.51180 F2400.00000
G92 E0
G1 X100.862 Y104.522 F7800.000
G1 E2.00000 F2400.00000
G1 X100.816 Y106.861 E2.07240 F1800.000
G1 X100.887 Y106.887 E2.07475
G1 X100.951 Y115.279 E2.33441
G1 X99.049 Y115.279 E2.39323
G1 X99.113 Y106.887 E2.65289
G1 X99.184 Y106.861 E2.65524
G1 X99.138 Y104.522 E2.72764
G1 X98.177 Y104.206 E2.75891
G1 X96.540 Y103.038 E2.82113
G1 X96.226 Y101.977 E2.85538
G1 X91.591 Y89.775 E3.25925
G1 X92.118 Y89.382 E3.27958
G1 X92.912 Y89.595 E3.30502
G1 X93.092 Y89.550 E3.31077
G1 X93.740 Y92.248 E3.39660
G1 X94.895 Y93.000 E3.43925
G1 X105.105 Y93.000 E3.75516
G1 X106.260 Y92.248 E3.79780
G1 X106.908 Y89.550 E3.88363
G1 X107.088 Y89.595 E3.88939
G1 X107.882 Y89.382 E3.91482
G1 X108.409 Y89.775 E3.93516
G1 X103.774 Y101.977 E4.33903
G1 X103.460 Y103.038 E4.37327
G1 X101.823 Y104.206 E4.43550
G1 X100.934 Y104.498 E4.46445
G1 X101.580 Y115.904 F7800.000
G1 X98.420 Y115.904 E4.56223 F1800.000
G1 X98.491 Y106.452 E4.85469
G1 X98.550 Y106.430 E4.85665
G1 X98.522 Y104.977 E4.90162
G1 X97.892 Y104.770 E4.92213
G1 X96.002 Y103.422 E4.99395
G1 X95.633 Y102.177 E5.03413
G1 X90.777 Y89.393 E5.45727
G1 X91.198 Y89.288 E5.47071
G1 X91.987 Y88.700 E5.50113
G1 X92.918 Y88.950 E5.53095
G1 X93.553 Y88.793 E5.55119
G1 X94.290 Y91.860 E5.64879
G1 X95.081 Y92.375 E5.67800
G1 X104.919 Y92.375 E5.98243
G1 X105.710 Y91.860 E6.01164
G1 X106.447 Y88.793 E6.10923
G1 X107.082 Y88.950 E6.12947
G1 X108.013 Y88.700 E6.15929
G1 X108.802 Y89.288 E6.18972
G1 X109.223 Y89.393 E6.20316
G1 X104.367 Y102.177 E6.62630
G1 X103.998 Y103.422 E6.66648
G1 X102.108 Y104.770 E6.73830
G1 X101.478 Y104.977 E6.75881
G1 X101.450 Y106.430 E6.80378
G1 X101.509 Y106.452 E6.80574
G1 X101.580 Y115.829 E7.09587
G1 X102.210 Y116.529 F7800.000
G1 X97.790 Y116.529 E7.23262 F1800.000
G1 X97.869 Y106.017 E7.55788
G1 X97.917 Y106.000 E7.55944
G1 X97.906 Y105.432 E7.57699
G1 X97.606 Y105.334 E7.58674
G1 X95.464 Y103.806 E7.66816
G1 X95.041 Y102.377 E7.71426
G1 X89.861 Y88.742 E8.16556
G1 X90.717 Y88.764 E8.19203
G1 X90.926 Y88.712 E8.19870
G1 X91.856 Y88.018 E8.23460
G1 X92.924 Y88.304 E8.26881
G1 X93.177 Y88.242 E8.27688
G1 X93.921 Y87.649 E8.30630
G1 X94.839 Y91.472 E8.42795
G1 X95.266 Y91.750 E8.44372
G1 X104.734 Y91.750 E8.73666
G1 X105.161 Y91.472 E8.75243
G1 X106.079 Y87.649 E8.87408
G1 X106.823 Y88.242 E8.90350
G1 X107.076 Y88.304 E8.91157
G1 X108.144 Y88.018 E8.94578
G1 X109.074 Y88.712 E8.98168
G1 X109.283 Y88.764 E8.98835
G1 X110.139 Y88.742 E9.01482
G1 X104.959 Y102.377 E9.46612
G1 X104.536 Y103.806 E9.51222
G1 X102.394 Y105.334 E9.59364
G1 X102.094 Y105.432 E9.60338
G1 X102.083 Y106.000 E9.62093
G1 X102.131 Y106.017 E9.62250
G1 X102.209 Y116.454 E9.94543
G1 X101.776 Y116.280 F7800.000
G1 X99.432 Y114.596 F7800.000
G1 X99.737 Y114.901 E9.95916 F1800.000
G1 X100.568 Y114.822 E9.98571
G1 X99.439 Y113.693 E10.03652
G1 X99.446 Y112.791 E10.06524
G1 X100.561 Y113.906 E10.11543
G1 X100.554 Y112.990 E10.14459
G1 X99.453 Y111.889 E10.19415
G1 X99.459 Y110.986 E10.22288
G1 X100.547 Y112.074 E10.27183
G1 X100.540 Y111.158 E10.30099
G1 X99.466 Y110.084 E10.34932
G1 X99.473 Y109.182 E10.37805
G1 X100.533 Y110.242 E10.42577
G1 X100.526 Y109.325 E10.45493
G1 X99.480 Y108.279 E10.50203
G1 X99.487 Y107.377 E10.53075
G1 X100.519 Y108.409 E10.57723
G1 X100.512 Y107.493 E10.60639
G1 X99.559 Y106.540 E10.64931
G1 X100.447 Y106.519 E10.67759
G1 X99.540 Y105.612 E10.71838
G1 X99.522 Y104.685 E10.74792
G1 X100.464 Y105.627 E10.79034
G1 X100.482 Y104.736 E10.81872
G1 X96.057 Y100.311 E11.01792
G1 X96.603 Y101.765 F7800.000
G1 X98.798 Y103.961 E11.11677 F1800.000
G1 X95.500 Y98.845 F7800.000
G1 X100.827 Y104.171 E11.35656 F1800.000
G1 X101.511 Y103.947 E11.37949
G1 X94.943 Y97.379 E11.67516
G1 X94.387 Y95.913 F7800.000
G1 X102.089 Y103.615 E12.02190 F1800.000
G1 X102.620 Y103.237 E12.04265
G1 X93.830 Y94.447 E12.43835
G1 X93.534 Y93.242 E12.47785
G1 X103.150 Y102.858 E12.91075
G1 X103.360 Y102.158 E12.93400
G1 X94.521 Y93.320 E13.33187
G1 X95.489 Y93.378 E13.36272
G1 X103.597 Y101.487 E13.72773
G1 X103.847 Y100.828 E13.75017
G1 X96.398 Y93.378 E14.08551
G1 X97.307 Y93.378 E14.11445
G1 X104.098 Y100.169 E14.42014
G1 X104.348 Y99.510 E14.44258
G1 X98.216 Y93.378 E14.71860
G1 X99.125 Y93.378 E14.74754
G1 X104.598 Y98.851 E14.99391
G1 X104.848 Y98.192 E15.01634
G1 X100.034 Y93.378 E15.23305
G1 X100.944 Y93.378 E15.26199
G1 X105.099 Y97.533 E15.44903
G1 X105.349 Y96.874 E15.47147
G1 X101.853 Y93.378 E15.62885
G1 X102.762 Y93.378 E15.65779
G1 X105.599 Y96.215 E15.78551
G1 X105.849 Y95.557 E15.80795
G1 X103.671 Y93.378 E15.90601
G1 X104.580 Y93.378 E15.93495
G1 X106.100 Y94.898 E16.00335
G1 X106.350 Y94.239 E16.02579
G1 X105.345 Y93.234 E16.07101
G1 X106.289 Y93.269 E16.10108
G1 X106.600 Y93.580 E16.11508
G1 X106.641 Y92.934 F7800.000
G1 X107.616 Y89.777 E16.33183 F1800.000
G1 E14.33183 F2400.00000
G92 E0
G1 X93.359 Y92.934 F7800.000
G1 E2.00000 F2400.00000
G1 X92.384 Y89.777 E2.21676 F1800.000
G1 E0.21676 F2400.00000
G92 E0
G1 X96.203 Y80.533 F7800.000
G1 E2.00000 F2400.00000
G1 X95.836 Y79.458 E2.03518 F1800.000
G1 X96.220 Y79.135 E2.05070
G1 X96.512 Y79.187 E2.05991
G1 X96.517 Y80.481 E2.09993
G1 X96.277 Y80.521 E2.10746
G1 X95.804 Y81.298 F7800.000
G1 X95.065 Y79.134 E2.17823 F1800.000
G1 X95.334 Y79.063 E2.18685
G1 X96.041 Y78.468 E2.21545
G1 X96.897 Y78.621 E2.24234
G1 X97.135 Y78.558 E2.24995
G1 X97.145 Y81.265 E2.33372
G1 X95.879 Y81.296 E2.37290
G1 X95.361 Y81.934 F7800.000
G1 X94.196 Y78.524 E2.48440 F1800.000
G1 X94.838 Y78.547 E2.50427
G1 X95.039 Y78.494 E2.51073
G1 X95.863 Y77.801 E2.54404
G1 X96.871 Y77.982 E2.57572
G1 X97.138 Y77.911 E2.58426
G1 X97.756 Y77.572 E2.60607
G1 X97.772 Y81.875 E2.73923
G1 X95.436 Y81.932 E2.81154
G1 X95.507 Y81.455 F7800.000
G1 E0.81154 F2400.00000
G92 E0
G1 X103.484 Y80.477 F7800.000
G1 E2.00000 F2400.00000
G1 X103.488 Y79.187 E2.03992 F1800.000
G1 X103.780 Y79.135 E2.04910
G1 X104.164 Y79.458 E2.06463
G1 X103.798 Y80.530 E2.09968
G1 X103.558 Y80.490 E2.10721
G1 X102.856 Y81.266 F7800.000
G1 X102.866 Y78.559 E2.19097 F1800.000
G1 X103.103 Y78.621 E2.19857
G1 X103.959 Y78.468 E2.22546
G1 X104.666 Y79.063 E2.25406
G1 X104.935 Y79.134 E2.26268
G1 X104.196 Y81.298 E2.33344
G1 X102.931 Y81.267 E2.37258
G1 X102.229 Y81.875 F7800.000
G1 X102.244 Y77.572 E2.50573 F1800.000
G1 X102.862 Y77.911 E2.52753
G1 X103.129 Y77.982 E2.53607
G1 X104.137 Y77.801 E2.56776
G1 X104.961 Y78.494 E2.60107
G1 X105.162 Y78.547 E2.60752
G1 X105.804 Y78.524 E2.62740
G1 X104.639 Y81.934 E2.73890
G1 X102.304 Y81.877 E2.81115
G1 X102.484 Y81.445 F7800.000
G1 Z0.650 F7800.000
G1 E0.81115 F2400.00000
G92 E0
G1 X88.854 Y73.638 F7800.000
G1 E2.00000 F2400.00000
G1 X91.586 Y71.877 E2.08770 F3600.000
G1 X93.584 Y71.204 E2.14458
G1 X94.013 Y71.076 E2.15665
G1 X94.521 Y70.952 E2.17075
G1 X96.776 Y70.491 E2.23284
G1 X98.104 Y70.357 E2.26884
G1 X101.896 Y70.357 E2.37115
G1 X103.224 Y70.491 E2.40714
G1 X105.479 Y70.952 E2.46923 F3600.000
G1 X105.987 Y71.076 E2.48334
G1 X108.414 Y71.877 E2.55228
G1 X110.428 Y72.974 E2.61415
G1 X112.396 Y75.561 E2.70185
G1 X116.747 Y85.785 E3.00159
G1 X117.266 Y88.019 E3.06345
G1 X117.116 Y89.827 E3.11240
G1 X110.498 Y119.371 E3.92915
G1 X109.617 Y121.489 E3.99102
G1 X107.391 Y123.634 E4.07443
G1 X105.079 Y124.993 E4.14676
G1 X102.931 Y125.796 E4.20863
G1 X101.722 Y125.907 E4.24137
G1 X98.278 Y125.907 E4.33429
G1 X96.019 Y125.510 E4.39616
G1 X94.921 Y124.993 E4.42891
G1 X92.609 Y123.634 E4.50123
G1 X90.863 Y122.147 E4.56310
G1 X89.502 Y119.371 E4.64651
G1 X82.884 Y89.827 E5.46326
G1 X82.778 Y87.536 E5.52513
G1 X83.253 Y85.785 E5.57408
G1 X87.604 Y75.561 E5.87381
G1 X88.813 Y73.701 E5.93366
G1 E3.93366 F2400.00000
G92 E0
G1 X100.922 Y104.731 F7800.000
G1 E2.00000 F2400.00000
G1 X100.880 Y106.857 E2.05908 F3600.000
G1 X101.210 Y106.981 E2.06887
G1 X101.276 Y115.797 E2.31377
G1 X98.724 Y115.797 E2.38468
G1 X98.790 Y106.981 E2.62959
G1 X99.120 Y106.857 E2.63938
G1 X99.078 Y104.731 E2.69845
G1 X97.797 Y104.310 E2.73592
G1 X96.288 Y103.234 E2.78739
G1 X95.117 Y99.284 E2.90182
G1 X91.580 Y89.972 E3.17853
G1 X92.161 Y89.539 E3.19867
G1 X92.932 Y89.746 E3.22084
G1 X93.130 Y89.697 E3.22649
G1 X93.616 Y91.721 E3.28432
G1 X95.098 Y92.686 E3.33345
G1 X104.902 Y92.686 E3.60578
G1 X106.384 Y91.721 E3.65491
G1 X106.870 Y89.697 E3.71273
G1 X107.068 Y89.746 E3.71838
G1 X107.839 Y89.539 E3.74056
G1 X108.420 Y89.972 E3.76070
G1 X104.883 Y99.284 E4.03740
G1 X103.712 Y103.234 E4.15184
G1 X102.203 Y104.310 E4.20331
G1 X100.993 Y104.708 E4.23869
G1 X101.543 Y106.406 F7800.000
G1 X101.861 Y106.525 E4.24811 F3600.000
G1 X101.936 Y116.451 E4.52385
G1 X98.064 Y116.451 E4.63140
G1 X98.139 Y106.525 E4.90715
G1 X98.457 Y106.406 E4.91656
G1 X98.433 Y105.208 E4.94985
G1 X97.498 Y104.901 E4.97720
G1 X95.725 Y103.636 E5.03769
G1 X94.496 Y99.494 E5.15771
G1 X90.720 Y89.551 E5.45315
G1 X91.215 Y89.428 E5.46733
G1 X91.933 Y88.893 E5.49220
G1 X92.110 Y88.848 E5.49728
G1 X92.939 Y89.070 E5.52111
G1 X93.612 Y88.903 E5.54038
G1 X94.191 Y91.315 E5.60927
G1 X95.292 Y92.031 E5.64576
G1 X104.708 Y92.031 E5.90730
G1 X105.809 Y91.315 E5.94379
G1 X106.388 Y88.903 E6.01268
G1 X107.061 Y89.070 E6.03195
G1 X107.890 Y88.848 E6.05578
G1 X108.067 Y88.893 E6.06087
G1 X108.785 Y89.428 E6.08573
G1 X109.280 Y89.551 E6.09991
G1 X105.504 Y99.494 E6.39536
G1 X104.275 Y103.636 E6.51537
G1 X102.502 Y104.901 E6.57587
G1 X101.567 Y105.208 E6.60321
G1 X101.545 Y106.331 E6.63441
G1 X102.104 Y105.605 F7800.000
G1 X102.096 Y106.031 E6.64228 F1800.000
G1 X102.403 Y106.145 E6.64834
G1 X102.481 Y116.530 E6.84035
G1 X102.533 Y116.823 E6.84585
G1 X102.238 Y116.996 E6.85216
G1 X97.762 Y116.996 E6.93493
G1 X97.467 Y116.823 E6.94124
G1 X97.519 Y116.530 E6.94674
G1 X97.597 Y106.145 E7.13875
G1 X97.904 Y106.031 E7.14481
G1 X97.896 Y105.605 E7.15268
G1 X97.249 Y105.393 E7.16526
G1 X95.256 Y103.971 E7.21053
G1 X93.980 Y99.669 E7.29350
G1 X89.926 Y88.995 E7.50458
G1 X90.624 Y89.013 E7.51751
G1 X90.977 Y88.925 E7.52423
G1 X91.694 Y88.391 E7.54075
G1 X92.114 Y88.284 E7.54876
G1 X92.944 Y88.507 E7.56466
G1 X93.321 Y88.414 E7.57183
G1 X93.937 Y87.922 E7.58641
G1 X94.671 Y90.976 E7.64447
G1 X95.454 Y91.486 E7.66176
G1 X104.546 Y91.486 E7.82984
G1 X105.329 Y90.976 E7.84713
G1 X106.063 Y87.922 E7.90520
G1 X106.679 Y88.414 E7.91977
G1 X107.056 Y88.507 E7.92694
G1 X107.886 Y88.284 E7.94284
G1 X108.307 Y88.391 E7.95086
G1 X109.023 Y88.925 E7.96737
G1 X109.376 Y89.013 E7.97410
G1 X110.074 Y88.995 E7.98702
G1 X106.020 Y99.669 E8.19810
G1 X104.744 Y103.971 E8.28107
G1 X102.751 Y105.393 E8.32634
G1 X102.176 Y105.582 E8.33754
G1 X101.681 Y105.645 F7800.000
G1 X101.692 Y104.007 F7800.000
G1 X103.581 Y102.118 E8.41227 F1200.000
G1 X103.974 Y100.793 E8.45096
G1 X99.484 Y105.283 E8.62866
G1 X99.502 Y106.197 E8.65425
G1 X100.513 Y105.187 E8.69424
G1 X100.494 Y106.138 E8.72087
G1 X99.520 Y107.112 E8.75940
G1 X99.178 Y108.386 E8.79633
G1 X100.476 Y107.089 E8.84768
G1 X100.819 Y107.678 E8.86677
G1 X99.171 Y109.326 E8.93198
G1 X99.164 Y110.265 E8.95827
G1 X100.826 Y108.603 E9.02404
G1 X100.833 Y109.529 E9.04994
G1 X99.157 Y111.205 E9.11626
G1 X99.150 Y112.144 E9.14256
G1 X100.840 Y110.454 E9.20944
G1 X100.847 Y111.380 E9.23534
G1 X99.143 Y113.084 E9.30277
G1 X99.136 Y114.024 E9.32907
G1 X100.854 Y112.305 E9.39706
G1 X100.861 Y113.231 E9.42296
G1 X99.128 Y114.963 E9.49151
G1 X99.625 Y115.399 E9.51000
G1 X100.868 Y114.156 E9.55919
G1 X100.875 Y115.082 E9.58509
G1 X100.557 Y115.399 E9.59766
G1 X99.383 Y104.451 F7800.000
G1 X104.367 Y99.467 E9.79490 F1200.000
G1 X104.872 Y98.030 F7800.000
G1 X98.681 Y104.221 E10.03990 F1200.000
G1 X97.979 Y103.990 E10.06058
G1 X105.443 Y96.526 E10.35596
G1 X106.014 Y95.023 F7800.000
G1 X97.418 Y103.619 E10.69617 F1200.000
G1 X96.874 Y103.231 E10.71488
G1 X106.585 Y93.519 E11.09922
G1 X106.574 Y92.598 E11.12500
G1 X96.501 Y102.671 E11.52364
G1 X96.287 Y101.952 E11.54463
G1 X105.156 Y93.083 E11.89561
G1 X104.224 Y93.083 E11.92171
G1 X96.074 Y101.233 E12.24422
G1 X95.861 Y100.514 E12.26521
G1 X103.291 Y93.083 E12.55927
G1 X102.359 Y93.083 E12.58537
G1 X95.648 Y99.795 E12.85096
G1 X95.424 Y99.086 E12.87175
G1 X101.426 Y93.083 E13.10931
G1 X100.494 Y93.083 E13.13540
G1 X95.167 Y98.410 E13.34621
G1 X94.910 Y97.734 E13.36644
G1 X99.561 Y93.083 E13.55051
G1 X98.629 Y93.083 E13.57660
G1 X94.654 Y97.059 E13.73393
G1 X94.397 Y96.383 E13.75415
G1 X97.696 Y93.083 E13.88473
G1 X96.764 Y93.083 E13.91083
G1 X94.140 Y95.707 E14.01466
G1 X93.884 Y95.031 E14.03489
G1 X95.831 Y93.083 E14.11198
G1 X94.969 Y93.013 E14.13618
G1 X93.627 Y94.356 E14.18932
G1 X93.370 Y93.680 E14.20955
G1 X94.405 Y92.645 E14.25049
G1 X93.437 Y92.681 E14.27759
G1 X93.113 Y93.004 E14.29039
G1 X93.126 Y92.311 F7800.000
G1 X92.394 Y89.940 E14.43504 F1200.000
G1 E12.43504 F2400.00000
G92 E0
G1 X106.874 Y92.311 F7800.000
G1 E2.00000 F2400.00000
G1 X107.606 Y89.940 E2.14465 F1200.000
G1 E0.14465 F2400.00000
G92 E0
G1 X96.672 Y80.768 F7800.000
G1 E2.00000 F2400.00000
G1 X96.343 Y80.824 E2.00926 F900.000
G1 X95.907 Y79.548 E2.04670
G1 X96.257 Y79.254 E2.05939
G1 X96.666 Y79.328 E2.07094
G1 X96.672 Y80.693 E2.10888
G1 X97.327 Y81.512 F7800.000
G1 X95.735 Y81.552 E2.15310 F900.000
G1 X95.758 Y81.135 E2.16472
G1 X95.095 Y79.195 E2.22167
G1 X95.409 Y79.112 E2.23070
G1 X96.032 Y78.588 E2.25332
G1 X96.120 Y78.565 E2.25584
G1 X96.882 Y78.701 E2.27734
G1 X97.318 Y78.587 E2.28987
G1 X97.327 Y81.437 E2.36905
G1 X97.872 Y82.043 F7800.000
G1 X95.160 Y82.112 E2.41920 F900.000
G1 X95.208 Y81.211 E2.43589
G1 X94.342 Y78.678 E2.48538
G1 X94.846 Y78.696 E2.49471
G1 X95.152 Y78.616 E2.50056
G1 X95.775 Y78.092 E2.51561
G1 X96.098 Y78.007 E2.52177
G1 X96.860 Y78.144 E2.53608
G1 X97.373 Y78.009 E2.54590
G1 X97.860 Y77.741 E2.55617
G1 X97.872 Y81.968 E2.63432
G1 X97.434 Y81.801 F7800.000
G1 E0.63432 F2400.00000
G92 E0
G1 X103.332 Y80.758 F7800.000
G1 E2.00000 F2400.00000
G1 X103.336 Y79.327 E2.03974 F900.000
G1 X103.743 Y79.254 E2.05124
G1 X104.093 Y79.548 E2.06393
G1 X103.661 Y80.813 E2.10105
G1 X103.406 Y80.770 E2.10822
G1 X102.675 Y81.512 F7800.000
G1 X102.683 Y78.587 E2.18947 F900.000
G1 X103.118 Y78.701 E2.20196
G1 X103.880 Y78.565 E2.22346
G1 X103.968 Y78.588 E2.22599
G1 X104.591 Y79.112 E2.24860
G1 X104.905 Y79.195 E2.25763
G1 X104.242 Y81.135 E2.31458
G1 X104.265 Y81.552 E2.32620
G1 X102.750 Y81.514 E2.36828
G1 X102.129 Y82.043 F7800.000
G1 X102.141 Y77.741 E2.44781 F900.000
G1 X102.627 Y78.009 E2.45807
G1 X103.140 Y78.144 E2.46789
G1 X103.902 Y78.007 E2.48220
G1 X104.225 Y78.092 E2.48837
G1 X104.848 Y78.616 E2.50342
